IMB-X-Files/The-Ambassadors-Assets/6616e2f786180d00e3de6167_slsh-logo.svg

<svg fill="none" height="53" viewBox="0 0 242 53" width="242" xmlns="http://www.w3.org/2000/svg"><path clip-rule="evenodd" d="m103.952 37.8091v-9.6926-.7677l-.022-1.3008.054-14.7147c-2.168.6717-4.7024 1.2049-7.4311 1.4181v.2666c1.0785.5118 1.7904 1.0343 2.114 1.5567.3133.5061.3131 1.6223.3128 3.2808v.1633 17.7643s0 .0533.0107.0746v.4799h-.0107s0 .0853.0107.1172v.0006c0 .9701 0 1.9509.0109 2.9211 0 .4264.3451.757.7657.757h4.174c.251 0 .504-.0035.758-.007.511-.0071 1.025-.0143 1.529.007l.032-.2239c-.026-.0065-.053-.014-.08-.0216v-.0001c-.06-.0172-.122-.0349-.19-.0423-1.477-.1919-1.952-.6291-2.06-2.0259zm-15.5839-18.6165c-.1618.0213-.3883.1493-.4314.2879-.0324.1173.0647.3945.2265.4478.3128.1067 1.2727.1919 1.2727.1919.2264.032.4423.0427.6148.0427.2923 0 .5508.0106.7928.0205h.0001c.6331.026 1.1533.0473 1.8711-.1378 2.4591-.6291 2.9662-3.8173 2.0925-5.6833-.7981-1.706-2.416-2.1432-4.077-2.2178-2.416-.1067-4.8536-.096-7.2696 0-.8628.0319-1.7904.3305-2.5562.7357-1.7365.9063-2.1895 2.5377-2.1571 4.3504.0216 1.5568.4314 1.898 2.0061 1.6741.1438-.0201.2879-.0407.4323-.0614.7003-.1005 1.4067-.2018 2.1131-.2372.507-.0213.9168.2133.906.8424-.0215.5971-.3667.853-.9167.8317-.3452-.0142-.6904-.0569-1.0356-.0995-.1725-.0214-.3451-.0427-.5176-.0605-.1989-.0199-.3977-.0451-.5966-.0703-.4375-.0555-.875-.1109-1.3125-.1109-.8197 0-1.1217.4691-.9383 1.2689.302 1.2582 1.208 1.9406 2.3297 2.3777 1.3373.515 2.5093.9345 3.7377 1.3743l.0001.0001h.0001c.6539.2341 1.3239.474 2.0432.737.2697.0959.9276.4371 1.2404.6077 0 0 .6471.4265 1.0247.6825.3882.2665.453.9063.4637 1.3647 0 .5576.002 1.1156.004 1.6739.0084 2.3454.0168 4.695-.1226 7.0376-.1619 2.6445-1.8228 2.847-3.7103 2.5379-.6903-.1067-1.0678-.5545-1.2835-1.1303-.1079-.2986-.1618-.6078-.1726-.9276l-.151-6.0353c-.0368-.2153-.0622-.4326-.0875-.6489-.0561-.4798-.1115-.954-.29-1.3876-.2588-.6292-.6471-1.2796-1.1756-1.6848-.5285-.4051-1.2619-.6611-1.9414-.7463-1.3483-.1601-2.6425.0852-3.7966.9063 1.3159.1812 1.5747 1.1089 1.7041 2.1112.0471.3334.0485.6782.05 1.0218.0005.129.001.2577.004.3857v4.0839c.0215 2.9429 1.9306 4.4677 4.5084 4.6277 2.4376.1386 4.8967.1386 7.345 0 2.2866-.128 4.2496-1.3116 4.4761-3.828.1847-2.0758.1329-4.1776.0814-6.2664-.0057-.2288-.0113-.4574-.0167-.6858-.0215-1.1516-.7442-1.9726-1.8228-2.3885-1.0785-.4158-2.1895-.7783-3.3004-1.1089l-1.8875-.5865c-.2833-.126-.5711-.2439-.8587-.3618-.5885-.2411-1.1757-.4817-1.7191-.7898-.852-.4798-1.2619-1.3008-1.3698-2.2711-.0647-.5225.0432-.7997.658-.8957 1.0678-.1706 1.4453-.6611 1.4021-1.6101-.0323-.8423-.3667-1.2475-1.2835-1.4181-.604-.1067-.906-.3519-.7981-.981.0511-.32.0882-.6443.1253-.968.0802-.7013.1603-1.4004.3816-2.0496.3775-1.1196 1.4669-1.4928 2.9877-1.2902 1.0678.1493 1.7688.7571 1.8767 1.898.1078 1.0876.0971 2.1965.0323 3.2841-.0431.6931-.3882 1.2476-1.208 1.3435zm74.4549 18.6261c.097 1.3968.55 1.834 1.941 2.0259l-.011.0213c.055.0068.106.0223.158.0382.029.009.059.0181.09.0258l-.032.224c-.474-.0213-.953-.0143-1.434-.0072-.241.0036-.482.0072-.723.0072h-3.948c-.399 0-.722-.3306-.722-.7571 0-.9704 0-1.9513-.022-2.9216v-2.8044-.0853c.017-3.6316.027-4.6366.031-5.0091v-.0004c.001-.1095.001-.1643.001-.2152 0-3.0602-1.046-4.585-3.16-4.585-1.628 0-3.106.9276-4.422 2.7936v1.5674 9.6925c.108 1.3968.583 1.834 2.06 2.0259.068.0075.13.0252.191.0426.026.0075.053.015.079.0215l-.032.2238c-.505-.0213-1.018-.0142-1.529-.007-.254.0035-.507.007-.758.007h-4.174c-.421 0-.766-.3305-.766-.757-.011-.9703-.011-1.9513-.011-2.9216-.01-.032-.01-.1173-.01-.1173h.01v-.4798c-.01-.0214-.01-.0747-.01-.0747v-17.7642c0-1.4928 0-2.5591-.195-3.1669-.032-.1066-.086-.2026-.129-.2772-.324-.5225-1.035-1.045-2.114-1.5568v-.2666c.048 0 .094-.0053.14-.0106.046-.0054.092-.0107.14-.0107 2.621-.2239 5.07-.7464 7.162-1.3968l-.054 13.9577c1.834-2.6764 4.099-4.0093 6.795-4.0093 1.456 0 2.74.4478 3.818 1.3542 1.09.9063 1.64 2.2925 1.64 4.1905v6.7708zm-20.455-14.0488c-.004-.0609-.006-.1231-.009-.1857-.005-.1235-.009-.2485-.024-.3687-.226-2.0686-1.294-3.4228-2.998-3.6893-3.009-.4692-6.029-.4585-9.039.032-1.412.2345-2.599 1.0236-2.858 2.4737-.259 1.4289-.323 2.9216-.226 4.3611.108 1.5461 1.229 2.3565 2.707 2.6337.626.1166 1.258.1934 1.925.2745.31.0376.627.0761.955.1201 4.594.4798 4.422 2.8683 4.422 2.8683.108 2.1219.065 4.2437 0 6.3657-.032 1.0129-.69 1.5354-1.726 1.6101-.093.0054-.188.008-.286.0107-.094.0027-.19.0053-.285.0106-2.125.0213-2.686-.4798-2.772-2.6018-.033-.8381-.03-1.6801-.028-2.5213.002-.5607.004-1.1211-.005-1.6798-.011-1.1196-.388-1.6421-1.305-1.9406-.518-.1707-1.078-.0853-1.531.2025l-2.697 1.7701c-.29.1936-.565.4113-.843.6304v.0001c-.135.1067-.27.2138-.408.3185l.065.1919c.103.0071.207.0187.312.0304.213.0239.427.0478.637.0335.518-.0212.712.192.733.6932.018.488.091.9691.163 1.4488v.0005c.018.1176.036.2351.053.3527.237 1.6527 1.111 2.751 2.761 3.0602 3.02.5544 6.072.4692 9.114.0746 1.65-.2132 2.75-1.2048 2.955-2.8576.195-1.5674.248-3.1562.216-4.7343-.032-1.4075-.777-2.4844-2.189-2.8576-.809-.2165-1.643-.3337-2.475-.4504v-.0001c-.356-.0499-.711-.0998-1.063-.1573-.572-.0959-1.154-.1919-1.888-.3092-1.564-.3092-2.017-1.1516-2.017-1.1516-.248-.3519-.485-.8104-.485-1.2155 0-1.8767.054-3.764.151-5.6407.032-.7357.529-1.2156 1.273-1.2902.722-.0746 1.456-.1279 2.168-.0213.96.1386 1.37.6504 1.445 1.6207.065.8851.108 1.77.097 2.6551-.011.917.194 1.6953.874 2.2392.41.3198.938.4478 1.456.3518l3.635-.6291v-.2025c-.913-.2365-.923-.8757-.933-1.516-.003-.1393-.005-.2787-.017-.4141zm-19.324 11.8146c0 .6718 0 1.3542.032 2.0366l.021.0214c.076 1.5567.529 2.0365 2.071 2.2284.068.0075.13.0252.191.0425.026.0076.053.0151.079.0216l-.032.2238c-.461-.02-.928-.0148-1.395-.0096-2.013.0226-4.022.0452-5.519-1.963l-.039.0647c-.184.3067-.316.5262-.457.7457-.583.8743-1.359 1.4608-2.449 1.4608-.207 0-.414.0007-.622.0014-1.175.0041-2.354.0082-3.509-.1187-2.329-.2559-3.548-1.5781-3.656-4.0092-.086-2.1539-.065-4.3184-.021-6.4723.032-1.5995 1.175-2.943 2.793-3.1989.84-.1345 1.704-.134 2.565-.1335.3.0002.599.0004.897-.0051l3.969.0533v-3.1562c0-.4904 0-.981-.032-1.4715-.14-2.1858-1.111-2.9322-3.322-2.5697-1.208.1919-1.704.7037-1.769 1.9193-.032.3413-.032.6718-.032 1.0023.011.0426.011.0747.011.1173.014.114.019.2279.024.3418.002.0567.004.1134.008.1701.009.1214.011.246.012.3705.008.5863.015 1.1689.851 1.3887v.192l-2.438.4265c-2.059.4666-2.327.427-2.754.3637l-.007-.0011c-.539-.0854-.809-.3092-.852-.8744-.039-.5126-.033-1.0365-.026-1.5552.002-.1935.004-.3862.004-.5774.011-2.2925 1.424-3.0495 3.096-3.3161 2.966-.4691 5.954-.5011 8.941-.064 1.726.2453 2.869 1.3542 3.107 3.0923.14 1.0662.248 2.1432.248 3.2201.023 2.3773.018 4.7601.014 7.1406-.002.9507-.003 1.901-.003 2.8505zm-8.78 4.521c.528.064 1.1.0747 1.629 0 1.445-.2132 2.523-1.7274 2.318-3.0709-.14-.8743-.237-1.7593-.258-2.6443-.031-1.2621-.024-2.5295-.017-3.7948.003-.5412.006-1.0821.006-1.622.075-1.6847-.453-1.77-.992-1.802-4.088-.2772-4.164.1386-4.164 1.3969-.013 1.9464-.006 3.8928.002 5.8393.005 1.1671.009 2.3342.009 3.5013 0 .1919.011.3838.032.5651.141.9703.594 1.5248 1.435 1.6314z" fill="#fff" fill-rule="evenodd"/></svg>

<svg width="242" height="53" viewBox="0 0 242 53" fill="none" xmlns="http://www.w3.org/2000/svg">
<path fill-rule="evenodd" clip-rule="evenodd" d="M103.952 37.8091V28.1165V27.3488L103.93 26.048L103.984 11.3333C101.816 12.005 99.2816 12.5382 96.5529 12.7514V13.018C97.6314 13.5298 98.3433 14.0523 98.6669 14.5747C98.9802 15.0808 98.98 16.197 98.9797 17.8555L98.9797 18.0188V35.7831C98.9797 35.7831 98.9797 35.8364 98.9904 35.8577V36.3376H98.9797C98.9797 36.3376 98.9797 36.4229 98.9904 36.4548V36.4554C98.9904 37.4255 98.9904 38.4063 99.0013 39.3765C99.0013 39.8029 99.3464 40.1335 99.767 40.1335H103.941C104.192 40.1335 104.445 40.13 104.699 40.1265C105.21 40.1194 105.724 40.1122 106.228 40.1335L106.26 39.9096C106.234 39.9031 106.207 39.8956 106.18 39.888L106.18 39.8879C106.12 39.8707 106.058 39.853 105.99 39.8456C104.513 39.6537 104.038 39.2165 103.93 37.8197L103.952 37.8091ZM88.3681 19.1926C88.2063 19.2139 87.9798 19.3419 87.9367 19.4805C87.9043 19.5978 88.0014 19.875 88.1632 19.9283C88.476 20.035 89.4359 20.1202 89.4359 20.1202C89.6623 20.1522 89.8782 20.1629 90.0507 20.1629C90.343 20.1629 90.6015 20.1735 90.8435 20.1834L90.8436 20.1834C91.4767 20.2094 91.9969 20.2307 92.7147 20.0456C95.1738 19.4165 95.6809 16.2283 94.8072 14.3623C94.0091 12.6563 92.3912 12.2191 90.7302 12.1445C88.3142 12.0378 85.8766 12.0485 83.4606 12.1445C82.5978 12.1764 81.6702 12.475 80.9044 12.8802C79.1679 13.7865 78.7149 15.4179 78.7473 17.2306C78.7689 18.7874 79.1787 19.1286 80.7534 18.9047C80.8972 18.8846 81.0413 18.864 81.1857 18.8433C81.886 18.7428 82.5924 18.6415 83.2988 18.6061C83.8058 18.5848 84.2156 18.8194 84.2048 19.4485C84.1833 20.0456 83.8381 20.3015 83.2881 20.2802C82.9429 20.266 82.5977 20.2233 82.2525 20.1807L82.2525 20.1807H82.2525H82.2525H82.2525C82.08 20.1593 81.9074 20.138 81.7349 20.1202C81.536 20.1003 81.3372 20.0751 81.1383 20.0499C80.7008 19.9944 80.2633 19.939 79.8258 19.939C79.0061 19.939 78.7041 20.4081 78.8875 21.2079C79.1895 22.4661 80.0955 23.1485 81.2172 23.5856C82.5545 24.1006 83.7265 24.5201 84.9549 24.9599L84.955 24.96L84.9551 24.96C85.609 25.1941 86.279 25.434 86.9983 25.697C87.268 25.7929 87.9259 26.1341 88.2387 26.3047C88.2387 26.3047 88.8858 26.7312 89.2634 26.9872C89.6516 27.2537 89.7164 27.8935 89.7271 28.3519C89.7271 28.9095 89.7291 29.4675 89.7311 30.0258C89.7395 32.3712 89.7479 34.7208 89.6085 37.0634C89.4466 39.7079 87.7857 39.9104 85.8982 39.6013C85.2079 39.4946 84.8304 39.0468 84.6147 38.471C84.5068 38.1724 84.4529 37.8632 84.4421 37.5434L84.2911 31.5081C84.2543 31.2928 84.2289 31.0755 84.2036 30.8592C84.1475 30.3794 84.0921 29.9052 83.9136 29.4716C83.6548 28.8424 83.2665 28.192 82.738 27.7868C82.2095 27.3817 81.4761 27.1257 80.7966 27.0405C79.4483 26.8804 78.1541 27.1257 77 27.9468C78.3159 28.128 78.5747 29.0557 78.7041 30.058C78.7512 30.3914 78.7526 30.7362 78.7541 31.0798C78.7546 31.2088 78.7551 31.3375 78.7581 31.4655V35.5494C78.7796 38.4923 80.6887 40.0171 83.2665 40.1771C85.7041 40.3157 88.1632 40.3157 90.6115 40.1771C92.8981 40.0491 94.8611 38.8655 95.0876 36.3491C95.2723 34.2733 95.2205 32.1715 95.169 30.0827C95.1633 29.8539 95.1577 29.6253 95.1523 29.3969C95.1308 28.2453 94.4081 27.4243 93.3295 27.0084C92.251 26.5926 91.14 26.2301 90.0291 25.8995L88.1416 25.313C87.8583 25.187 87.5705 25.0691 87.2829 24.9512C86.6944 24.7101 86.1072 24.4695 85.5638 24.1614C84.7118 23.6816 84.3019 22.8606 84.194 21.8903C84.1293 21.3678 84.2372 21.0906 84.852 20.9946C85.9198 20.824 86.2973 20.3335 86.2541 19.3845C86.2218 18.5422 85.8874 18.137 84.9706 17.9664C84.3666 17.8597 84.0646 17.6145 84.1725 16.9854C84.2236 16.6654 84.2607 16.3411 84.2978 16.0174C84.378 15.3161 84.4581 14.617 84.6794 13.9678C85.0569 12.8482 86.1463 12.475 87.6671 12.6776C88.7349 12.8269 89.4359 13.4347 89.5438 14.5756C89.6516 15.6632 89.6409 16.7721 89.5761 17.8597C89.533 18.5528 89.1879 19.1073 88.3681 19.2032V19.1926ZM162.823 37.8187C162.92 39.2155 163.373 39.6527 164.764 39.8446L164.753 39.8659C164.808 39.8727 164.859 39.8882 164.911 39.9041C164.94 39.9131 164.97 39.9222 165.001 39.9299L164.969 40.1539C164.495 40.1326 164.016 40.1396 163.535 40.1467C163.294 40.1503 163.053 40.1539 162.812 40.1539H158.864C158.465 40.1539 158.142 39.8233 158.142 39.3968C158.142 38.4264 158.142 37.4455 158.12 36.4752V33.6708V33.5855C158.137 29.9539 158.147 28.9489 158.151 28.5764V28.576C158.152 28.4665 158.152 28.4117 158.152 28.3608C158.152 25.3006 157.106 23.7758 154.992 23.7758C153.364 23.7758 151.886 24.7034 150.57 26.5694V28.1368V37.8293C150.678 39.2261 151.153 39.6633 152.63 39.8552C152.698 39.8627 152.76 39.8804 152.821 39.8978C152.847 39.9053 152.874 39.9128 152.9 39.9193L152.868 40.1431C152.363 40.1218 151.85 40.1289 151.339 40.1361C151.085 40.1396 150.832 40.1431 150.581 40.1431H146.407C145.986 40.1431 145.641 39.8126 145.641 39.3861C145.63 38.4158 145.63 37.4348 145.63 36.4645C145.62 36.4325 145.62 36.3472 145.62 36.3472H145.63V35.8674C145.62 35.846 145.62 35.7927 145.62 35.7927V18.0285C145.62 16.5357 145.62 15.4694 145.425 14.8616C145.393 14.755 145.339 14.659 145.296 14.5844C144.972 14.0619 144.261 13.5394 143.182 13.0276V12.761C143.23 12.761 143.276 12.7557 143.322 12.7504C143.368 12.745 143.414 12.7397 143.462 12.7397C146.083 12.5158 148.532 11.9933 150.624 11.3429L150.57 25.3006C152.404 22.6242 154.669 21.2913 157.365 21.2913C158.821 21.2913 160.105 21.7391 161.183 22.6455C162.273 23.5518 162.823 24.938 162.823 26.836V33.6068V37.8187ZM142.368 23.7699C142.364 23.709 142.362 23.6468 142.359 23.5842C142.354 23.4607 142.35 23.3357 142.335 23.2155C142.109 21.1469 141.041 19.7927 139.337 19.5262C136.328 19.057 133.308 19.0677 130.298 19.5582C128.886 19.7927 127.699 20.5818 127.44 22.0319C127.181 23.4608 127.117 24.9535 127.214 26.393C127.322 27.9391 128.443 28.7495 129.921 29.0267C130.547 29.1433 131.179 29.2201 131.846 29.3012C132.156 29.3388 132.473 29.3773 132.801 29.4213C137.395 29.9011 137.223 32.2896 137.223 32.2896C137.331 34.4115 137.288 36.5333 137.223 38.6553C137.191 39.6682 136.533 40.1907 135.497 40.2654C135.404 40.2708 135.309 40.2734 135.211 40.2761C135.117 40.2788 135.021 40.2814 134.926 40.2867C132.801 40.308 132.24 39.8069 132.154 37.6849C132.121 36.8468 132.124 36.0048 132.126 35.1636C132.128 34.6029 132.13 34.0425 132.121 33.4838C132.11 32.3642 131.733 31.8417 130.816 31.5432C130.298 31.3725 129.738 31.4579 129.285 31.7457L126.588 33.5158C126.298 33.7094 126.023 33.9271 125.745 34.1462L125.745 34.1463L125.745 34.1463C125.61 34.253 125.475 34.3601 125.337 34.4648L125.402 34.6567C125.505 34.6638 125.609 34.6754 125.714 34.6871C125.927 34.711 126.141 34.7349 126.351 34.7206C126.869 34.6994 127.063 34.9126 127.084 35.4138C127.102 35.9018 127.175 36.3829 127.247 36.8626L127.247 36.8631C127.265 36.9807 127.283 37.0982 127.3 37.2158C127.537 38.8685 128.411 39.9668 130.061 40.276C133.081 40.8304 136.133 40.7452 139.175 40.3506C140.825 40.1374 141.925 39.1458 142.13 37.493C142.325 35.9256 142.378 34.3368 142.346 32.7587C142.314 31.3512 141.569 30.2743 140.157 29.9011C139.348 29.6846 138.514 29.5674 137.682 29.4507L137.682 29.4506L137.682 29.4506C137.326 29.4007 136.971 29.3508 136.619 29.2933C136.047 29.1974 135.465 29.1014 134.731 28.9841C133.167 28.6749 132.714 27.8325 132.714 27.8325C132.466 27.4806 132.229 27.0221 132.229 26.617C132.229 24.7403 132.283 22.853 132.38 20.9763C132.412 20.2406 132.909 19.7607 133.653 19.6861C134.375 19.6115 135.109 19.5582 135.821 19.6648C136.781 19.8034 137.191 20.3152 137.266 21.2855C137.331 22.1706 137.374 23.0555 137.363 23.9406C137.352 24.8576 137.557 25.6359 138.237 26.1798C138.647 26.4996 139.175 26.6276 139.693 26.5316L143.328 25.9025V25.7C142.415 25.4635 142.405 24.8243 142.395 24.184C142.392 24.0447 142.39 23.9053 142.378 23.7699H142.368ZM123.044 35.5845C123.044 36.2563 123.044 36.9387 123.076 37.6211L123.097 37.6425C123.173 39.1992 123.626 39.679 125.168 39.8709C125.236 39.8784 125.298 39.8961 125.359 39.9134C125.385 39.921 125.412 39.9285 125.438 39.935L125.406 40.1588C124.945 40.1388 124.478 40.144 124.011 40.1492C121.998 40.1718 119.989 40.1944 118.492 38.1862L118.453 38.2509C118.269 38.5576 118.137 38.7771 117.996 38.9966C117.413 39.8709 116.637 40.4574 115.547 40.4574C115.34 40.4574 115.133 40.4581 114.925 40.4588C113.75 40.4629 112.571 40.467 111.416 40.3401C109.087 40.0842 107.868 38.762 107.76 36.3309C107.674 34.177 107.695 32.0125 107.739 29.8586C107.771 28.2591 108.914 26.9156 110.532 26.6597C111.372 26.5252 112.236 26.5257 113.097 26.5262C113.397 26.5264 113.696 26.5266 113.994 26.5211L117.963 26.5744V23.4182C117.963 22.9278 117.963 22.4372 117.931 21.9467C117.791 19.7609 116.82 19.0145 114.609 19.377C113.401 19.5689 112.905 20.0807 112.84 21.2963C112.808 21.6376 112.808 21.9681 112.808 22.2986C112.819 22.3412 112.819 22.3733 112.819 22.4159C112.833 22.5299 112.838 22.6438 112.843 22.7577C112.845 22.8144 112.847 22.8711 112.851 22.9278C112.86 23.0492 112.862 23.1738 112.863 23.2983C112.871 23.8846 112.878 24.4672 113.714 24.687V24.879L111.276 25.3055C109.217 25.7721 108.949 25.7325 108.522 25.6692L108.515 25.6681C107.976 25.5827 107.706 25.3589 107.663 24.7937C107.624 24.2811 107.63 23.7572 107.637 23.2385C107.639 23.045 107.641 22.8523 107.641 22.6611C107.652 20.3686 109.065 19.6116 110.737 19.345C113.703 18.8759 116.691 18.8439 119.678 19.281C121.404 19.5263 122.547 20.6352 122.785 22.3733C122.925 23.4395 123.033 24.5165 123.033 25.5934C123.056 27.9707 123.051 30.3535 123.047 32.734C123.045 33.6847 123.044 34.635 123.044 35.5845ZM114.264 40.1055C114.792 40.1695 115.364 40.1802 115.893 40.1055C117.338 39.8923 118.416 38.3781 118.211 37.0346C118.071 36.1603 117.974 35.2753 117.953 34.3903C117.922 33.1282 117.929 31.8608 117.936 30.5955C117.939 30.0543 117.942 29.5134 117.942 28.9735C118.017 27.2888 117.489 27.2035 116.95 27.1715C112.862 26.8943 112.786 27.3101 112.786 28.5684C112.773 30.5148 112.78 32.4612 112.788 34.4077C112.793 35.5748 112.797 36.7419 112.797 37.909C112.797 38.1009 112.808 38.2928 112.829 38.4741C112.97 39.4444 113.423 39.9989 114.264 40.1055Z" fill="white"/>
</svg>
